src/brand/searxng.svg

<?xml version="1.0" encoding="UTF-8" standalone="no"?>
<svg
   data-v-6805eed4=""
   version="1.0"
   width="300"
   height="125"
   viewBox="0 0 300 125"
   preserveAspectRatio="xMidYMid"
   color-interpolation-filters="sRGB"
   id="svg86"
   sodipodi:docname="searxng.svg"
   inkscape:version="1.2.2 (b0a8486541, 2022-12-01)"
   xmlns:inkscape="http://www.inkscape.org/namespaces/inkscape"
   xmlns:sodipodi="http://sodipodi.sourceforge.net/DTD/sodipodi-0.dtd"
   xmlns="http://www.w3.org/2000/svg"
   xmlns:svg="http://www.w3.org/2000/svg">
  <sodipodi:namedview
     id="namedview88"
     pagecolor="#505050"
     bordercolor="#ffffff"
     borderopacity="1"
     inkscape:showpageshadow="0"
     inkscape:pageopacity="0"
     inkscape:pagecheckerboard="1"
     inkscape:deskcolor="#505050"
     showgrid="false"
     inkscape:zoom="1.7218441"
     inkscape:cx="167.8433"
     inkscape:cy="115.57376"
     inkscape:window-width="1366"
     inkscape:window-height="739"
     inkscape:window-x="0"
     inkscape:window-y="0"
     inkscape:window-maximized="1"
     inkscape:current-layer="svg86" />
  <g
     data-v-6805eed4=""
     fill="#e69b41"
     class="iconlettersvg-g iconlettersvg"
     transform="translate(6.4827181,2.8234567)"
     id="g82">
    <g
       id="g68">
      <g
         class="tp-name"
         id="g66">
        <g
           transform="scale(1.96)"
           id="g64">
          <g
             id="g24">
            <g
               class="name-imagesvg"
               id="g22">
              <g
                 id="g20">
                <rect
                   fill="#e69b41"
                   fill-opacity="0"
                   stroke-width="2"
                   x="0"
                   y="0"
                   width="49.882298"
                   height="50"
                   class="image-rect"
                   id="rect6" />
                <svg
                   x="0"
                   y="0"
                   width="49.882298"
                   height="50"
                   filtersec="colorsb7657958153"
                   class="image-svg-svg primary"
                   style="overflow:visible"
                   version="1.1"
                   id="svg18">
                  <svg
                     viewBox="0 0 127.14 127.44"
                     version="1.1"
                     id="svg16"
                     width="100%"
                     height="100%">
                    <title
                       id="title8">资源 14</title>
                    <path
                       fill="#fdf3eb"
                       d="M 127.14,127.44 63.56,63.87 0,127.44 Z"
                       id="path10"
                       style="fill:#f5eff9;fill-opacity:1" />
                    <path
                       fill="#e69b41"
                       d="M 127.14,127.44 V 0 L 63.56,63.87 Z"
                       id="path12"
                       style="fill:#262930;fill-opacity:1" />
                    <path
                       fill="#fdf3eb"
                       d="M 0,0 V 127.44 L 63.56,63.87 Z"
                       id="path14"
                       style="fill:#865dff;fill-opacity:1" />
                  </svg>
                </svg>
                <!---->
              </g>
            </g>
          </g>
          <g
             transform="translate(44.882296)"
             id="g42">
            <g
               class="name-imagesvg"
               id="g40">
              <g
                 id="g38">
                <rect
                   fill="#e69b41"
                   fill-opacity="0"
                   stroke-width="2"
                   x="0"
                   y="0"
                   width="50"
                   height="50"
                   class="image-rect"
                   id="rect26" />
                <svg
                   x="0"
                   y="0"
                   width="50"
                   height="50"
                   filtersec="colorsb4757034354"
                   class="image-svg-svg primary"
                   style="overflow:visible"
                   version="1.1"
                   id="svg36">
                  <svg
                     viewBox="0 0 131.94 131.94"
                     version="1.1"
                     id="svg34"
                     width="100%"
                     height="100%">
                    <title
                       id="title28">资源 25</title>
                    <path
                       d="M 66,0 A 66,66 0 1 1 0,66 66,66 0 0 1 66,0 Z"
                       fill="#fdf3eb"
                       id="path30"
                       style="fill:#865dff;fill-opacity:1" />
                    <path
                       d="m 66,0 a 65.95,65.95 0 0 1 46.48,112.75 L 19.19,19.19 A 67,67 0 0 1 66,0 Z"
                       fill="#e69b41"
                       id="path32"
                       style="fill:#262930;fill-opacity:1" />
                  </svg>
                </svg>
                <!---->
              </g>
            </g>
          </g>
          <g
             transform="translate(89.882296)"
             id="g62">
            <g
               class="name-imagesvg"
               id="g60">
              <g
                 id="g58">
                <rect
                   fill="#e69b41"
                   fill-opacity="0"
                   stroke-width="2"
                   x="0"
                   y="0"
                   width="56.822819"
                   height="50"
                   class="image-rect"
                   id="rect44" />
                <svg
                   x="0"
                   y="0"
                   width="56.822819"
                   height="50"
                   filtersec="colorsb9114772040"
                   class="image-svg-svg primary"
                   style="overflow:visible"
                   version="1.1"
                   id="svg56">
                  <svg
                     viewBox="0 0 144.83 127.44"
                     version="1.1"
                     id="svg54"
                     width="100%"
                     height="100%">
                    <title
                       id="title46">资源 3</title>
                    <path
                       fill="#fdf3eb"
                       d="M 0,127.44 H 50.38 L 97.45,44.38 72.27,0 Z"
                       id="path48"
                       style="fill:#865dff;fill-opacity:1" />
                    <path
                       fill="#e69b41"
                       d="M 144.83,127.44 H 94.45 L 47.08,44.38 72.27,0 Z"
                       id="path50"
                       style="fill:#262930;fill-opacity:1" />
                    <path
                       fill="#e69b41"
                       d="M 72.27,88.76 97.45,44.38 72.27,0 47.08,44.38 Z"
                       id="path52"
                       style="fill:#f5eff9;fill-opacity:1;image-rendering:auto"
                       inkscape:highlight-color="#ffffff" />
                  </svg>
                </svg>
                <!---->
              </g>
            </g>
          </g>
        </g>
      </g>
    </g>
    <g
       data-gra="path-slogan"
       fill-rule=""
       class="tp-slogan"
       fill="#fdf3eb"
       transform="translate(5,106)"
       id="g80">
      <rect
         x="0"
         height="1"
         y="5.3752007"
         width="68.825409"
         id="rect70" />
      <rect
         height="1"
         y="5.3752007"
         width="68.825409"
         x="208.71661"
         id="rect72" />
      <g
         transform="translate(71.825409)"
         id="g78">
        <g
           transform="scale(1.44)"
           id="g76">
          <path
             d="m 0.5,-1.02 0.6,-0.7 q 0.42,0.45 0.99,0.72 0.57,0.27 1.19,0.27 v 0 q 0.78,0 1.21,-0.36 0.43,-0.35 0.43,-0.93 v 0 q 0,-0.3 -0.1,-0.51 Q 4.72,-2.74 4.54,-2.89 4.37,-3.04 4.13,-3.16 3.89,-3.28 3.61,-3.41 v 0 L 2.48,-3.9 Q 2.21,-4.02 1.92,-4.19 1.63,-4.36 1.4,-4.6 1.18,-4.84 1.03,-5.17 0.89,-5.5 0.89,-5.93 v 0 q 0,-0.44 0.18,-0.83 0.19,-0.38 0.52,-0.66 0.33,-0.28 0.78,-0.44 0.45,-0.16 0.99,-0.16 v 0 q 0.71,0 1.31,0.27 0.6,0.27 1.02,0.71 v 0 L 5.15,-6.4 Q 4.79,-6.74 4.35,-6.94 3.91,-7.14 3.36,-7.14 v 0 q -0.66,0 -1.06,0.31 -0.4,0.3 -0.4,0.84 v 0 q 0,0.29 0.11,0.49 0.11,0.2 0.31,0.35 0.19,0.15 0.42,0.26 0.22,0.11 0.46,0.21 v 0 l 1.12,0.48 q 0.34,0.14 0.64,0.33 0.3,0.19 0.51,0.43 0.22,0.25 0.34,0.58 0.13,0.33 0.13,0.76 v 0 q 0,0.47 -0.19,0.88 -0.18,0.4 -0.53,0.71 Q 4.87,-0.2 4.38,-0.03 3.89,0.14 3.26,0.14 v 0 Q 2.44,0.14 1.73,-0.17 1.02,-0.48 0.5,-1.02 Z M 8.49,0 v -7.87 h 4.53 v 0.84 H 9.48 v 2.47 h 2.99 v 0.85 H 9.48 v 2.86 h 3.66 V 0 Z m 8.31,-3.2 h 2.36 L 18.79,-4.4 Q 18.57,-5.06 18.38,-5.72 18.19,-6.37 18,-7.06 v 0 h -0.05 q -0.18,0.69 -0.37,1.34 -0.2,0.66 -0.41,1.32 v 0 z M 20.16,0 19.41,-2.4 H 16.54 L 15.79,0 h -1.02 l 2.66,-7.87 h 1.13 L 21.22,0 Z m 4.18,-7.07 v 2.93 h 1.32 q 0.92,0 1.41,-0.38 0.49,-0.38 0.49,-1.14 v 0 q 0,-0.78 -0.49,-1.1 -0.49,-0.31 -1.41,-0.31 v 0 z M 28.79,0 h -1.13 l -1.9,-3.32 H 24.34 V 0 h -1 v -7.87 h 2.46 q 0.6,0 1.11,0.11 0.51,0.12 0.88,0.38 0.36,0.26 0.57,0.68 0.2,0.42 0.2,1.04 v 0 q 0,0.92 -0.48,1.47 -0.48,0.55 -1.28,0.76 v 0 z m 2.07,-3.94 v 0 q 0,-0.94 0.26,-1.7 0.26,-0.76 0.73,-1.28 0.47,-0.53 1.11,-0.81 0.64,-0.29 1.4,-0.29 v 0 q 0.72,0 1.26,0.3 0.54,0.29 0.89,0.68 v 0 l -0.57,0.63 q -0.31,-0.33 -0.69,-0.53 -0.37,-0.2 -0.88,-0.2 v 0 q -0.56,0 -1.02,0.22 -0.45,0.22 -0.78,0.64 -0.32,0.41 -0.5,1 -0.18,0.59 -0.18,1.32 v 0 q 0,0.74 0.17,1.34 0.18,0.59 0.49,1.01 0.31,0.42 0.76,0.65 0.45,0.23 1.01,0.23 v 0 q 0.58,0 1.01,-0.23 0.42,-0.23 0.81,-0.65 v 0 L 36.7,-1 q -0.47,0.54 -1.06,0.84 -0.58,0.3 -1.34,0.3 v 0 q -0.74,0 -1.37,-0.27 -0.63,-0.28 -1.1,-0.8 -0.46,-0.52 -0.72,-1.28 -0.25,-0.77 -0.25,-1.73 z M 39.16,0 v -7.87 h 1 v 3.3 h 3.66 v -3.3 h 1.01 V 0 H 43.82 V -3.71 H 40.16 V 0 Z m 12.25,0 v -7.87 h 4.54 v 0.84 h -3.54 v 2.47 h 2.99 v 0.85 h -2.99 v 2.86 h 3.66 V 0 Z m 7.33,0 v -7.87 h 1.03 l 2.84,4.94 0.85,1.63 h 0.05 Q 63.48,-1.9 63.43,-2.54 63.39,-3.18 63.39,-3.8 v 0 -4.07 h 0.95 V 0 H 63.31 L 60.45,-4.96 59.6,-6.58 h -0.05 q 0.05,0.6 0.09,1.22 0.04,0.62 0.04,1.24 v 0 V 0 Z m 8.3,-3.94 v 0 q 0,-0.94 0.27,-1.7 0.27,-0.76 0.76,-1.28 0.49,-0.53 1.15,-0.81 0.66,-0.29 1.45,-0.29 v 0 q 0.81,0 1.36,0.31 0.55,0.31 0.89,0.67 v 0 l -0.56,0.63 q -0.3,-0.31 -0.69,-0.52 -0.39,-0.21 -0.99,-0.21 v 0 q -0.6,0 -1.08,0.22 -0.48,0.22 -0.82,0.64 -0.33,0.41 -0.52,1 -0.18,0.59 -0.18,1.32 v 0 q 0,0.74 0.17,1.34 0.17,0.59 0.5,1.01 0.33,0.42 0.82,0.65 0.49,0.23 1.12,0.23 v 0 q 0.42,0 0.8,-0.13 0.38,-0.12 0.62,-0.34 v 0 -2.05 h -1.67 v -0.83 h 2.58 v 3.31 q -0.38,0.4 -1.01,0.66 -0.63,0.25 -1.43,0.25 v 0 q -0.78,0 -1.42,-0.27 -0.65,-0.28 -1.12,-0.8 -0.47,-0.52 -0.73,-1.28 -0.27,-0.77 -0.27,-1.73 z M 75.9,0 v -7.87 h 1 V 0 Z m 4.16,0 v -7.87 h 1.03 l 2.85,4.94 0.85,1.63 h 0.05 Q 84.8,-1.9 84.76,-2.54 84.72,-3.18 84.72,-3.8 v 0 -4.07 h 0.94 V 0 h -1.03 l -2.85,-4.96 -0.86,-1.62 h -0.04 q 0.04,0.6 0.09,1.22 0.04,0.62 0.04,1.24 v 0 V 0 Z m 8.76,0 v -7.87 h 4.54 v 0.84 h -3.54 v 2.47 h 2.99 v 0.85 h -2.99 v 2.86 h 3.66 V 0 Z"
             transform="translate(-0.504,8.016)"
             id="path74" />
        </g>
      </g>
    </g>
  </g>
  <defs
     v-gra="od"
     id="defs84" />
</svg>

<?xml version="1.0" encoding="UTF-8" standalone="no"?>
<svg
   data-v-6805eed4=""
   version="1.0"
   width="100%"
   height="100%"
   viewBox="0 0 340.000000 250.000000"
   preserveAspectRatio="xMidYMid meet"
   color-interpolation-filters="sRGB"
   style="margin: auto;"
   id="svg86"
   sodipodi:docname="logo2.svg"
   inkscape:version="1.2.2 (b0a8486541, 2022-12-01)"
   xmlns:inkscape="http://www.inkscape.org/namespaces/inkscape"
   xmlns:sodipodi="http://sodipodi.sourceforge.net/DTD/sodipodi-0.dtd"
   xmlns="http://www.w3.org/2000/svg"
   xmlns:svg="http://www.w3.org/2000/svg">
  <sodipodi:namedview
     id="namedview88"
     pagecolor="#505050"
     bordercolor="#ffffff"
     borderopacity="1"
     inkscape:showpageshadow="0"
     inkscape:pageopacity="0"
     inkscape:pagecheckerboard="1"
     inkscape:deskcolor="#505050"
     showgrid="false"
     inkscape:zoom="1.7218441"
     inkscape:cx="136.48158"
     inkscape:cy="114.99299"
     inkscape:window-width="1366"
     inkscape:window-height="739"
     inkscape:window-x="0"
     inkscape:window-y="0"
     inkscape:window-maximized="1"
     inkscape:current-layer="svg86" />
  <g
     data-v-6805eed4=""
     fill="#e69b41"
     class="iconlettersvg-g iconlettersvg"
     transform="translate(26.228988647460938,66.12767791748047)"
     id="g82">
    <g
       id="g68">
      <g
         class="tp-name"
         id="g66"
         transform="translate(0,0)">
        <g
           transform="scale(1.9600000000000009)"
           id="g64">
          <g
             id="g24"
             transform="translate(0, 0)">
            <g
               class="name-imagesvg"
               id="g22">
              <g
                 id="g20">
                <rect
                   fill="#e69b41"
                   fill-opacity="0"
                   stroke-width="2"
                   x="0"
                   y="0"
                   width="49.88229635671274"
                   height="50"
                   class="image-rect"
                   id="rect6" />
                <svg
                   x="0"
                   y="0"
                   width="49.88229635671274"
                   height="50"
                   filtersec="colorsb7657958153"
                   class="image-svg-svg primary"
                   style="overflow: visible;"
                   version="1.1"
                   id="svg18">
                  <svg
                     viewBox="0 0 127.14 127.44"
                     version="1.1"
                     id="svg16">
                    <title
                       id="title8">资源 14</title>
                    <path
                       fill="#fdf3eb"
                       d="M127.14 127.44L63.56 63.87 0 127.44h127.14z"
                       id="path10"
                       style="fill:#f5eff9;fill-opacity:1" />
                    <path
                       fill="#e69b41"
                       d="M127.14 127.44V0L63.56 63.87l63.58 63.57z"
                       id="path12"
                       style="fill:#262930;fill-opacity:1" />
                    <path
                       fill="#fdf3eb"
                       d="M0 0v127.44l63.56-63.57L0 0z"
                       id="path14"
                       style="fill:#865dff;fill-opacity:1" />
                  </svg>
                </svg>
                <!---->
              </g>
            </g>
          </g>
          <g
             transform="translate(44.88229635671274, 0)"
             id="g42">
            <g
               class="name-imagesvg"
               id="g40">
              <g
                 id="g38">
                <rect
                   fill="#e69b41"
                   fill-opacity="0"
                   stroke-width="2"
                   x="0"
                   y="0"
                   width="50"
                   height="50"
                   class="image-rect"
                   id="rect26" />
                <svg
                   x="0"
                   y="0"
                   width="50"
                   height="50"
                   filtersec="colorsb4757034354"
                   class="image-svg-svg primary"
                   style="overflow: visible;"
                   version="1.1"
                   id="svg36">
                  <svg
                     viewBox="0 0 131.94 131.94"
                     version="1.1"
                     id="svg34">
                    <title
                       id="title28">资源 25</title>
                    <path
                       d="M66 0A66 66 0 1 1 0 66 66 66 0 0 1 66 0z"
                       fill="#fdf3eb"
                       id="path30"
                       style="fill:#865dff;fill-opacity:1" />
                    <path
                       d="M66 0a65.95 65.95 0 0 1 46.48 112.75L19.19 19.19A67 67 0 0 1 66 0z"
                       fill="#e69b41"
                       id="path32"
                       style="fill:#262930;fill-opacity:1" />
                  </svg>
                </svg>
                <!---->
              </g>
            </g>
          </g>
          <g
             transform="translate(89.88229635671274, 0)"
             id="g62">
            <g
               class="name-imagesvg"
               id="g60">
              <g
                 id="g58">
                <rect
                   fill="#e69b41"
                   fill-opacity="0"
                   stroke-width="2"
                   x="0"
                   y="0"
                   width="56.82281821112014"
                   height="50"
                   class="image-rect"
                   id="rect44" />
                <svg
                   x="0"
                   y="0"
                   width="56.82281821112014"
                   height="50"
                   filtersec="colorsb9114772040"
                   class="image-svg-svg primary"
                   style="overflow: visible;"
                   version="1.1"
                   id="svg56">
                  <svg
                     viewBox="0 0 144.83 127.44"
                     version="1.1"
                     id="svg54">
                    <title
                       id="title46">资源 3</title>
                    <path
                       fill="#fdf3eb"
                       d="M0 127.44h50.38l47.07-83.06L72.27 0 0 127.44z"
                       id="path48"
                       style="fill:#865dff;fill-opacity:1" />
                    <path
                       fill="#e69b41"
                       d="M144.83 127.44H94.45L47.08 44.38 72.27 0l72.56 127.44z"
                       id="path50"
                       style="fill:#262930;fill-opacity:1" />
                    <path
                       fill="#e69b41"
                       d="M 72.27,88.76 97.45,44.38 72.27,0 47.08,44.38 Z"
                       id="path52"
                       style="image-rendering:auto;fill:#f5eff9;fill-opacity:1"
                       inkscape:highlight-color="#ffffff" />
                  </svg>
                </svg>
                <!---->
              </g>
            </g>
          </g>
        </g>
      </g>
    </g>
    <g
       data-gra="path-slogan"
       fill-rule=""
       class="tp-slogan"
       fill="#fdf3eb"
       transform="translate(5,106)"
       id="g80">
      <rect
         x="0"
         height="1"
         y="5.3752007484436035"
         width="68.82540893554688"
         id="rect70" />
      <rect
         height="1"
         y="5.3752007484436035"
         width="68.82540893554688"
         x="208.71661376953125"
         id="rect72" />
      <g
         transform="translate(71.82540893554688,0)"
         id="g78">
        <g
           transform="scale(1.4400000000000004)"
           id="g76">
          <path
             d="M0.50-1.02L1.10-1.72Q1.52-1.27 2.09-1.00Q2.66-0.73 3.28-0.73L3.28-0.73Q4.06-0.73 4.49-1.09Q4.92-1.44 4.92-2.02L4.92-2.02Q4.92-2.32 4.82-2.53Q4.72-2.74 4.54-2.89Q4.37-3.04 4.13-3.16Q3.89-3.28 3.61-3.41L3.61-3.41L2.48-3.90Q2.21-4.02 1.92-4.19Q1.63-4.36 1.40-4.60Q1.18-4.84 1.03-5.17Q0.89-5.50 0.89-5.93L0.89-5.93Q0.89-6.37 1.07-6.76Q1.26-7.14 1.59-7.42Q1.92-7.70 2.37-7.86Q2.82-8.02 3.36-8.02L3.36-8.02Q4.07-8.02 4.67-7.75Q5.27-7.48 5.69-7.04L5.69-7.04L5.15-6.40Q4.79-6.74 4.35-6.94Q3.91-7.14 3.36-7.14L3.36-7.14Q2.70-7.14 2.30-6.83Q1.90-6.53 1.90-5.99L1.90-5.99Q1.90-5.70 2.01-5.50Q2.12-5.30 2.32-5.15Q2.51-5.00 2.74-4.89Q2.96-4.78 3.20-4.68L3.20-4.68L4.32-4.20Q4.66-4.06 4.96-3.87Q5.26-3.68 5.47-3.44Q5.69-3.19 5.81-2.86Q5.94-2.53 5.94-2.10L5.94-2.10Q5.94-1.63 5.75-1.22Q5.57-0.82 5.22-0.51Q4.87-0.20 4.38-0.03Q3.89 0.14 3.26 0.14L3.26 0.14Q2.44 0.14 1.73-0.17Q1.02-0.48 0.50-1.02L0.50-1.02ZM8.49 0L8.49-7.87L13.02-7.87L13.02-7.03L9.48-7.03L9.48-4.56L12.47-4.56L12.47-3.71L9.48-3.71L9.48-0.85L13.14-0.85L13.14 0L8.49 0ZM16.80-3.20L19.16-3.20L18.79-4.40Q18.57-5.06 18.38-5.72Q18.19-6.37 18.00-7.06L18.00-7.06L17.95-7.06Q17.77-6.37 17.58-5.72Q17.38-5.06 17.17-4.40L17.17-4.40L16.80-3.20ZM20.16 0L19.41-2.40L16.54-2.40L15.79 0L14.77 0L17.43-7.87L18.56-7.87L21.22 0L20.16 0ZM24.34-7.07L24.34-4.14L25.66-4.14Q26.58-4.14 27.07-4.52Q27.56-4.90 27.56-5.66L27.56-5.66Q27.56-6.44 27.07-6.76Q26.58-7.07 25.66-7.07L25.66-7.07L24.34-7.07ZM28.79 0L27.66 0L25.76-3.32L24.34-3.32L24.34 0L23.34 0L23.34-7.87L25.80-7.87Q26.40-7.87 26.91-7.76Q27.42-7.64 27.79-7.38Q28.15-7.12 28.36-6.70Q28.56-6.28 28.56-5.66L28.56-5.66Q28.56-4.74 28.08-4.19Q27.60-3.64 26.80-3.43L26.80-3.43L28.79 0ZM30.86-3.94L30.86-3.94Q30.86-4.88 31.12-5.64Q31.38-6.40 31.85-6.92Q32.32-7.45 32.96-7.73Q33.60-8.02 34.36-8.02L34.36-8.02Q35.08-8.02 35.62-7.72Q36.16-7.43 36.51-7.04L36.51-7.04L35.94-6.41Q35.63-6.74 35.25-6.94Q34.88-7.14 34.37-7.14L34.37-7.14Q33.81-7.14 33.35-6.92Q32.90-6.70 32.57-6.28Q32.25-5.87 32.07-5.28Q31.89-4.69 31.89-3.96L31.89-3.96Q31.89-3.22 32.06-2.62Q32.24-2.03 32.55-1.61Q32.86-1.19 33.31-0.96Q33.76-0.73 34.32-0.73L34.32-0.73Q34.90-0.73 35.33-0.96Q35.75-1.19 36.14-1.61L36.14-1.61L36.70-1.00Q36.23-0.46 35.64-0.16Q35.06 0.14 34.30 0.14L34.30 0.14Q33.56 0.14 32.93-0.13Q32.30-0.41 31.83-0.93Q31.37-1.45 31.11-2.21Q30.86-2.98 30.86-3.94ZM39.16 0L39.16-7.87L40.16-7.87L40.16-4.57L43.82-4.57L43.82-7.87L44.83-7.87L44.83 0L43.82 0L43.82-3.71L40.16-3.71L40.16 0L39.16 0ZM51.41 0L51.41-7.87L55.95-7.87L55.95-7.03L52.41-7.03L52.41-4.56L55.40-4.56L55.40-3.71L52.41-3.71L52.41-0.85L56.07-0.85L56.07 0L51.41 0ZM58.74 0L58.74-7.87L59.77-7.87L62.61-2.93L63.46-1.30L63.51-1.30Q63.48-1.90 63.43-2.54Q63.39-3.18 63.39-3.80L63.39-3.80L63.39-7.87L64.34-7.87L64.34 0L63.31 0L60.45-4.96L59.60-6.58L59.55-6.58Q59.60-5.98 59.64-5.36Q59.68-4.74 59.68-4.12L59.68-4.12L59.68 0L58.74 0ZM67.04-3.94L67.04-3.94Q67.04-4.88 67.31-5.64Q67.58-6.40 68.07-6.92Q68.56-7.45 69.22-7.73Q69.88-8.02 70.67-8.02L70.67-8.02Q71.48-8.02 72.03-7.71Q72.58-7.40 72.92-7.04L72.92-7.04L72.36-6.41Q72.06-6.72 71.67-6.93Q71.28-7.14 70.68-7.14L70.68-7.14Q70.08-7.14 69.60-6.92Q69.12-6.70 68.78-6.28Q68.45-5.87 68.26-5.28Q68.08-4.69 68.08-3.96L68.08-3.96Q68.08-3.22 68.25-2.62Q68.42-2.03 68.75-1.61Q69.08-1.19 69.57-0.96Q70.06-0.73 70.69-0.73L70.69-0.73Q71.11-0.73 71.49-0.86Q71.87-0.98 72.11-1.20L72.11-1.20L72.11-3.25L70.44-3.25L70.44-4.08L73.02-4.08L73.02-0.77Q72.64-0.37 72.01-0.11Q71.38 0.14 70.58 0.14L70.58 0.14Q69.80 0.14 69.16-0.13Q68.51-0.41 68.04-0.93Q67.57-1.45 67.31-2.21Q67.04-2.98 67.04-3.94ZM75.90 0L75.90-7.87L76.90-7.87L76.90 0L75.90 0ZM80.06 0L80.06-7.87L81.09-7.87L83.94-2.93L84.79-1.30L84.84-1.30Q84.80-1.90 84.76-2.54Q84.72-3.18 84.72-3.80L84.72-3.80L84.72-7.87L85.66-7.87L85.66 0L84.63 0L81.78-4.96L80.92-6.58L80.88-6.58Q80.92-5.98 80.97-5.36Q81.01-4.74 81.01-4.12L81.01-4.12L81.01 0L80.06 0ZM88.82 0L88.82-7.87L93.36-7.87L93.36-7.03L89.82-7.03L89.82-4.56L92.81-4.56L92.81-3.71L89.82-3.71L89.82-0.85L93.48-0.85L93.48 0L88.82 0Z"
             transform="translate(-0.504, 8.016)"
             id="path74" />
        </g>
      </g>
    </g>
  </g>
  <defs
     v-gra="od"
     id="defs84" />
</svg>
